message-plus.svg

<svg fill="currentColor" viewBox="0 0 24 24"><path d="M20 2a2 2 0 0 1 2 2v12a2 2 0 0 1-2 2H6l-4 4V4a2 2 0 0 1 2-2zm-9 4v3H8v2h3v3h2v-3h3V9h-3V6z"/></svg>

<svg  viewBox="0 0 24 24" fill="currentColor"><path  d="M20,2A2,2 0 0,1 22,4V16A2,2 0 0,1 20,18H6L2,22V4C2,2.89 2.9,2 4,2H20M11,6V9H8V11H11V14H13V11H16V9H13V6H11Z"/></svg>
